icons/mastodon-mono.svg

<svg viewBox="0 0 74 79" fill="black" xmlns="http://www.w3.org/2000/svg"><title>mastodon-mono</title><path d="M73.7014 17.4323C72.5616 9.05152 65.1774 2.4469 56.424 1.1671C54.9472 0.950843 49.3518 0.163818 36.3901 0.163818H36.2933C23.3281 0.163818 20.5465 0.950843 19.0697 1.1671C10.56 2.41145 2.78877 8.34604 0.903306 16.826C-0.00357854 21.0022 -0.100361 25.6322 0.068112 29.8793C0.308275 35.9699 0.354874 42.0498 0.91406 48.1156C1.30064 52.1448 1.97502 56.1419 2.93215 60.0769C4.72441 67.3445 11.9795 73.3925 19.0876 75.86C26.6979 78.4332 34.8821 78.8603 42.724 77.0937C43.5866 76.8952 44.4398 76.6647 45.2833 76.4024C47.1867 75.8033 49.4199 75.1332 51.0616 73.9562C51.0841 73.9397 51.1026 73.9184 51.1156 73.8938C51.1286 73.8693 51.1359 73.8421 51.1368 73.8144V67.9366C51.1364 67.9107 51.1302 67.8852 51.1186 67.862C51.1069 67.8388 51.0902 67.8184 51.0695 67.8025C51.0489 67.7865 51.0249 67.7753 50.9994 67.7696C50.9738 67.764 50.9473 67.7641 50.9218 67.7699C45.8976 68.9569 40.7491 69.5519 35.5836 69.5425C26.694 69.5425 24.3031 65.3699 23.6184 63.6327C23.0681 62.1314 22.7186 60.5654 22.5789 58.9744C22.5775 58.9477 22.5825 58.921 22.5934 58.8965C22.6043 58.8721 22.621 58.8505 22.6419 58.8336C22.6629 58.8167 22.6876 58.8049 22.714 58.7992C22.7404 58.7934 22.7678 58.794 22.794 58.8007C27.7345 59.9796 32.799 60.5746 37.8813 60.5733C39.1036 60.5733 40.3223 60.5733 41.5447 60.5414C46.6562 60.3996 52.0437 60.1408 57.0728 59.1694C57.1983 59.1446 57.3237 59.1233 57.4313 59.0914C65.3638 57.5847 72.9128 52.8555 73.6799 40.8799C73.7086 40.4084 73.7803 35.9415 73.7803 35.4523C73.7839 33.7896 74.3216 23.6576 73.7014 17.4323ZM61.4925 47.3144H53.1514V27.107C53.1514 22.8528 51.3591 20.6832 47.7136 20.6832C43.7061 20.6832 41.6988 23.2499 41.6988 28.3194V39.3803H33.4078V28.3194C33.4078 23.2499 31.3969 20.6832 27.3894 20.6832C23.7654 20.6832 21.9552 22.8528 21.9516 27.107V47.3144H13.6176V26.4937C13.6176 22.2395 14.7157 18.8598 16.9118 16.3545C19.1772 13.8552 22.1488 12.5719 25.8373 12.5719C30.1064 12.5719 33.3325 14.1955 35.4832 17.4394L37.5587 20.8853L39.6377 17.4394C41.7884 14.1955 45.0145 12.5719 49.2765 12.5719C52.9614 12.5719 55.9329 13.8552 58.2055 16.3545C60.4017 18.8574 61.4997 22.2371 61.4997 26.4937L61.4925 47.3144Z" fill="inherit"/></svg>

<svg xmlns="http://www.w3.org/2000/svg" viewBox="0 0 74 79"><title>mastodon-mono</title><path fill="inherit" d="M73.701 17.432c-1.14-8.38-8.524-14.985-17.277-16.265C54.947.951 49.352.164 36.39.164h-.097C23.328.164 20.547.95 19.07 1.167 10.56 2.411 2.789 8.346.903 16.826-.004 21.002-.1 25.632.068 29.879c.24 6.09.287 12.17.846 18.237a85 85 0 0 0 2.018 11.96c1.792 7.268 9.048 13.316 16.156 15.784 7.61 2.573 15.794 3 23.636 1.234a35 35 0 0 0 2.56-.692c1.903-.599 4.136-1.269 5.778-2.446a.18.18 0 0 0 .075-.142v-5.877a.17.17 0 0 0-.138-.167.2.2 0 0 0-.077 0 66.2 66.2 0 0 1-15.338 1.773c-8.89 0-11.28-4.173-11.966-5.91-.55-1.502-.9-3.068-1.04-4.659a.17.17 0 0 1 .136-.175.2.2 0 0 1 .08.002 65 65 0 0 0 15.087 1.772c1.223 0 2.441 0 3.664-.032 5.111-.141 10.499-.4 15.528-1.372.125-.024.25-.046.358-.078 7.933-1.506 15.482-6.236 16.249-18.211.029-.472.1-4.939.1-5.428.004-1.662.542-11.794-.079-18.02M61.493 47.314H53.15V27.107c0-4.254-1.792-6.424-5.437-6.424-4.008 0-6.015 2.567-6.015 7.636V39.38h-8.291V28.32c0-5.07-2.011-7.637-6.019-7.637-3.624 0-5.434 2.17-5.437 6.424v20.207h-8.334v-20.82q0-6.381 3.294-10.14c2.265-2.499 5.237-3.782 8.925-3.782 4.27 0 7.496 1.624 9.646 4.867l2.076 3.446 2.079-3.446c2.15-3.244 5.377-4.867 9.639-4.867 3.684 0 6.656 1.283 8.929 3.783Q61.5 20.108 61.5 26.494z"/></svg>
